lib/svg/file-media.svg

<svg xmlns="http://www.w3.org/2000/svg" width="12" height="16" viewBox="0 0 12 16"><path d="M6 5h2v2H6V5zm6-.5V14c0 .55-.45 1-1 1H1c-.55 0-1-.45-1-1V2c0-.55.45-1 1-1h7.5L12 4.5zM11 5L8 2H1v11l3-5 2 4 2-2 3 3V5z"/></svg>

<?xml version="1.0" encoding="UTF-8" standalone="no"?>
<svg width="12px" height="16px" viewBox="0 0 12 16" version="1.1" xmlns="http://www.w3.org/2000/svg" xmlns:xlink="http://www.w3.org/1999/xlink">
    <!-- Generator: Sketch 3.8.3 (29802) - http://www.bohemiancoding.com/sketch -->
    <title>file-media</title>
    <desc>Created with Sketch.</desc>
    <defs></defs>
    <g id="Octicons" stroke="none" stroke-width="1" fill="none" fill-rule="evenodd">
        <g id="file-media" fill="#000000">
            <path d="M6,5 L8,5 L8,7 L6,7 L6,5 L6,5 Z M12,4.5 L12,14 C12,14.55 11.55,15 11,15 L1,15 C0.45,15 0,14.55 0,14 L0,2 C0,1.45 0.45,1 1,1 L8.5,1 L12,4.5 L12,4.5 Z M11,5 L8,2 L1,2 L1,13 L4,8 L6,12 L8,10 L11,13 L11,5 L11,5 Z" id="Shape"></path>
        </g>
    </g>
</svg>
